X:185
T:Dainty Davy
M:C
L:1/8
N:mis-numbered as 183 in Thompson
B:Thompson's Compleat Collection of 200 Favourite Country Dances, vol. 2 (London, 1765)
Z:Transcribed and edited by Flynn Titford-Mock, 2007
Z:abc's:AK/Fiddler's Companion
K:Dmin
f2 | c3BA2G2 | F2ED F4 | F2c2 (Ac)(cA) | F2c2A2f2 | c3BA2G2 | F2(ED) F3e | (fe)(fd) e2 (d^c) | d4 d2 :|
|: e2 | fg a2 fg a2 | fg a2-a2 gf | efg2 efg2 | ef g2-g2 fe | fga2 fga2 | fg a2-a2 gf | (gf)(ed) e2 (d^c) | d4 d2 :|

